Newaita-dark/apps/64/com.github.rkoesters.xkcd-gtk.svg

<svg height="64" viewBox="0 0 64 64" width="64" xmlns="http://www.w3.org/2000/svg" xmlns:xlink="http://www.w3.org/1999/xlink"><linearGradient id="a"><stop offset="0" stop-opacity=".313726"/><stop offset=".222222" stop-opacity=".27451"/><stop offset="1" stop-opacity="0"/></linearGradient><radialGradient id="b" cx="450.908936" cy="189.579361" gradientTransform="matrix(.00000035 -.156265 -.281277 -.0000002 89.046304 127.190659)" gradientUnits="userSpaceOnUse" r="21.166656" xlink:href="#a"/><radialGradient id="c" cx="450.908936" cy="189.579361" gradientTransform="matrix(-.00000035 .156265 .281277 .0000002 -25.540237 -15.054964)" gradientUnits="userSpaceOnUse" r="21.166656" xlink:href="#a"/><radialGradient id="d" cx="450.908936" cy="189.579361" gradientTransform="matrix(-.00000035 -.156265 .281277 -.0000002 -25.540237 127.190659)" gradientUnits="userSpaceOnUse" r="21.166656" xlink:href="#a"/><radialGradient id="e" cx="450.908936" cy="189.579361" gradientTransform="matrix(.00000035 .156265 -.281277 .0000002 89.0463 -15.054965)" gradientUnits="userSpaceOnUse" r="21.166656" xlink:href="#a"/><linearGradient id="f" gradientTransform="matrix(.0267201 0 0 .125012 24.930772 26.877567)" gradientUnits="userSpaceOnUse" x1="255.323059" x2="255.323044" y1="233.5" y2="254.666656"><stop offset="0" stop-opacity=".27451"/><stop offset="1" stop-opacity="0"/></linearGradient><linearGradient id="g" gradientUnits="userSpaceOnUse" x1="37.04522400013" x2="37.04522400013" y1="56.067868" y2="5.79220799994"><stop offset="0" stop-color="#bdbdbd"/><stop offset="1" stop-color="#e0e0e0"/></linearGradient><linearGradient id="h" gradientTransform="matrix(.0286447 -.016538 .016538 .0286447 -11.77746 18.874593)" gradientUnits="userSpaceOnUse" x1="960" x2="960" y1="1695.118164" y2="175.118134"><stop offset="0" stop-color="#424242"/><stop offset="1" stop-color="#616161"/></linearGradient><path d="m36.382812 56.066406h5.292969v-2.644531h-5.292969zm0 0" fill="url(#b)"/><path d="m27.121094 56.066406h-5.289063v2.648438h5.289063zm0 0" fill="url(#c)"/><path d="m27.121094 56.066406h-5.289063v-2.644531h5.289063zm0 0" fill="url(#d)"/><path d="m36.382812 56.066406h5.292969v2.648438h-5.292969zm0 0" fill="url(#e)"/><path d="m27.121094 55.40625h9.261718v3.308594h-9.261718zm0 0" fill="url(#f)"/><path d="m31.753906 5.792969c13.882813 0 25.136719 11.253906 25.136719 25.136719 0 13.882812-11.253906 25.136718-25.136719 25.136718-13.882812 0-25.140625-11.253906-25.140625-25.136718 0-13.882813 11.257813-25.136719 25.140625-25.136719zm0 0" fill="url(#g)"/><path d="m31.753906 56.066406c-13.925781 0-25.140625-11.210937-25.140625-25.136718 0-.082032.003907-.164063.003907-.246094.128906 13.8125 11.292968 24.890625 25.136718 24.890625s25.003906-11.078125 25.136719-24.890625v.246094c0 13.925781-11.210937 25.136718-25.136719 25.136718zm0 0" fill-opacity=".196078"/><path d="m31.753906 5.792969c-13.925781 0-25.140625 11.210937-25.140625 25.136719 0 .082031.003907.164062.003907.246093.128906-13.8125 11.292968-24.890625 25.136718-24.890625s25.003906 11.078125 25.136719 24.890625c0-.082031 0-.164062 0-.246093 0-13.925782-11.210937-25.136719-25.136719-25.136719zm0 0" fill="#fff" fill-opacity=".392157"/><path d="m31.753906 5.605469c-14.027344 0-25.328125 11.296875-25.328125 25.324219 0 14.027343 11.300781 25.324218 25.328125 25.324218s25.324219-11.296875 25.324219-25.324218c0-14.027344-11.296875-25.324219-25.324219-25.324219zm0 .375c13.824219 0 24.949219 11.125 24.949219 24.949219 0 13.824218-11.125 24.949218-24.949219 24.949218-13.828125 0-24.953125-11.125-24.953125-24.949218 0-13.824219 11.125-24.949219 24.953125-24.949219zm0 0" fill="#212121"/><path d="m21.003906 28.023438c-1.269531.734374-1.703125 2.347656-.96875 3.617187l2.648438 4.582031-5.730469 3.308594c-.636719.363281-.851563 1.171875-.484375 1.804688.367188.636718 1.171875.851562 1.808594.484374l8.019531-4.628906 13.75-7.9375 8.019531-4.632812c.632813-.367188.851563-1.171875.484375-1.804688-.367187-.636718-1.171875-.851562-1.808593-.484375l-5.726563 3.304688-2.648437-4.582031c-.730469-1.269532-2.34375-1.703126-3.613282-.96875zm0 0" fill="url(#h)"/><path d="m36.132812 19.730469c-.464843-.011719-.941406.105469-1.378906.355469l-13.75 7.9375c-1.007812.582031-1.488281 1.71875-1.273437 2.796874.140625-.722656.582031-1.378906 1.273437-1.78125l13.75-7.9375c1.269532-.730468 2.882813-.300781 3.613282.96875l2.648437 4.582032 5.726563-3.304688c.636718-.367187 1.441406-.152344 1.808593.484375.027344.050781.054688.101563.074219.152344.15625-.367187.140625-.796875-.074219-1.167969-.367187-.636718-1.171875-.851562-1.808593-.484375l-5.726563 3.304688-2.648437-4.582031c-.480469-.832032-1.339844-1.304688-2.234376-1.324219zm-13.890624 16.746093-5.289063 3.054688c-.585937.335938-.8125 1.046875-.5625 1.652344.109375-.261719.300781-.488282.5625-.636719l5.730469-3.308594zm0 0" fill="#fff" fill-opacity=".235294"/><path d="m48.429688 24.316406c-.101563.117188-.222657.222656-.363282.304688l-8.019531 4.632812-13.75 7.9375-8.019531 4.628906c-.574219.332032-1.285156.1875-1.6875-.304687-.339844.410156-.40625 1.007813-.121094 1.5.367188.632813 1.171875.851563 1.808594.484375l8.019531-4.632812 13.75-7.9375 8.019531-4.628907c.632813-.367187.851563-1.175781.484375-1.808593-.035156-.0625-.078125-.121094-.121093-.175782zm-28.613282 6.835938c-.230468.695312-.175781 1.480468.21875 2.164062l1.921875 3.324219.726563-.417969-2.648438-4.582031c-.089844-.160156-.164062-.320313-.21875-.488281zm0 0" fill-opacity=".235294"/><path d="m168.015205 9.166093c-10.15528 5.874439-13.623699 18.779457-7.74926 28.934737l21.185477 36.65275-45.839372 26.466223c-5.093264 2.905972-6.81185 9.374104-3.87463 14.436121 2.937219 5.093264 9.374105 6.811849 14.467368 3.87463l64.150124-37.027714 109.989497-63.493937 64.150124-37.058961c5.062016-2.937219 6.811849-9.374105 3.87463-14.436121-2.93722-5.093264-9.374105-6.81185-14.467369-3.87463l-45.808125 26.434975-21.185477-36.652749c-5.843192-10.155281-18.74821-13.623699-28.90349-7.74926zm0 0" fill="none" stroke="#212121" stroke-linecap="round" stroke-linejoin="round" stroke-width="3" transform="matrix(.125012 0 0 .125012 0 26.877566)"/></svg>

<?xml version="1.0" encoding="UTF-8"?>
<svg xmlns="http://www.w3.org/2000/svg" xmlns:xlink="http://www.w3.org/1999/xlink" width="64px" height="64px" viewBox="0 0 64 64" version="1.1">
<defs>
<radialGradient id="radial0" gradientUnits="userSpaceOnUse" cx="450.908936" cy="189.579361" fx="450.908936" fy="189.579361" r="21.166656" gradientTransform="matrix(0.000000348341,-0.156265,-0.281277,-0.000000203077,89.046304,127.190659)">
<stop offset="0" style="stop-color:rgb(0%,0%,0%);stop-opacity:0.313726;"/>
<stop offset="0.222222" style="stop-color:rgb(0%,0%,0%);stop-opacity:0.27451;"/>
<stop offset="1" style="stop-color:rgb(0%,0%,0%);stop-opacity:0;"/>
</radialGradient>
<radialGradient id="radial1" gradientUnits="userSpaceOnUse" cx="450.908936" cy="189.579361" fx="450.908936" fy="189.579361" r="21.166656" gradientTransform="matrix(-0.000000348341,0.156265,0.281277,0.000000203077,-25.540237,-15.054964)">
<stop offset="0" style="stop-color:rgb(0%,0%,0%);stop-opacity:0.313726;"/>
<stop offset="0.222222" style="stop-color:rgb(0%,0%,0%);stop-opacity:0.27451;"/>
<stop offset="1" style="stop-color:rgb(0%,0%,0%);stop-opacity:0;"/>
</radialGradient>
<radialGradient id="radial2" gradientUnits="userSpaceOnUse" cx="450.908936" cy="189.579361" fx="450.908936" fy="189.579361" r="21.166656" gradientTransform="matrix(-0.000000348341,-0.156265,0.281277,-0.000000203077,-25.540237,127.190659)">
<stop offset="0" style="stop-color:rgb(0%,0%,0%);stop-opacity:0.313726;"/>
<stop offset="0.222222" style="stop-color:rgb(0%,0%,0%);stop-opacity:0.27451;"/>
<stop offset="1" style="stop-color:rgb(0%,0%,0%);stop-opacity:0;"/>
</radialGradient>
<radialGradient id="radial3" gradientUnits="userSpaceOnUse" cx="450.908936" cy="189.579361" fx="450.908936" fy="189.579361" r="21.166656" gradientTransform="matrix(0.000000348341,0.156265,-0.281277,0.000000203077,89.0463,-15.054965)">
<stop offset="0" style="stop-color:rgb(0%,0%,0%);stop-opacity:0.313726;"/>
<stop offset="0.222222" style="stop-color:rgb(0%,0%,0%);stop-opacity:0.27451;"/>
<stop offset="1" style="stop-color:rgb(0%,0%,0%);stop-opacity:0;"/>
</radialGradient>
<linearGradient id="linear0" gradientUnits="userSpaceOnUse" x1="255.323059" y1="233.5" x2="255.323044" y2="254.666656" gradientTransform="matrix(0.0267201,0,0,0.125012,24.930772,26.877567)">
<stop offset="0" style="stop-color:rgb(0%,0%,0%);stop-opacity:0.27451;"/>
<stop offset="1" style="stop-color:rgb(0%,0%,0%);stop-opacity:0;"/>
</linearGradient>
<linearGradient id="linear1" gradientUnits="userSpaceOnUse" x1="296.333344" y1="233.5" x2="296.333344" y2="-168.666672" gradientTransform="matrix(0.125012,0,0,0.125012,0,26.877566)">
<stop offset="0" style="stop-color:rgb(74.117649%,74.117649%,74.117649%);stop-opacity:1;"/>
<stop offset="1" style="stop-color:rgb(87.843138%,87.843138%,87.843138%);stop-opacity:1;"/>
</linearGradient>
<linearGradient id="linear2" gradientUnits="userSpaceOnUse" x1="960" y1="1695.118164" x2="960" y2="175.118134" gradientTransform="matrix(0.0286447,-0.016538,0.016538,0.0286447,-11.77746,18.874593)">
<stop offset="0" style="stop-color:rgb(25.882354%,25.882354%,25.882354%);stop-opacity:1;"/>
<stop offset="1" style="stop-color:rgb(38.039216%,38.039216%,38.039216%);stop-opacity:1;"/>
</linearGradient>
</defs>
<g id="surface1">
<path style=" stroke:none;fill-rule:nonzero;fill:url(#radial0);" d="M 36.382812 56.066406 L 41.675781 56.066406 L 41.675781 53.421875 L 36.382812 53.421875 Z M 36.382812 56.066406 "/>
<path style=" stroke:none;fill-rule:nonzero;fill:url(#radial1);" d="M 27.121094 56.066406 L 21.832031 56.066406 L 21.832031 58.714844 L 27.121094 58.714844 Z M 27.121094 56.066406 "/>
<path style=" stroke:none;fill-rule:nonzero;fill:url(#radial2);" d="M 27.121094 56.066406 L 21.832031 56.066406 L 21.832031 53.421875 L 27.121094 53.421875 Z M 27.121094 56.066406 "/>
<path style=" stroke:none;fill-rule:nonzero;fill:url(#radial3);" d="M 36.382812 56.066406 L 41.675781 56.066406 L 41.675781 58.714844 L 36.382812 58.714844 Z M 36.382812 56.066406 "/>
<path style=" stroke:none;fill-rule:nonzero;fill:url(#linear0);" d="M 27.121094 55.40625 L 36.382812 55.40625 L 36.382812 58.714844 L 27.121094 58.714844 Z M 27.121094 55.40625 "/>
<path style=" stroke:none;fill-rule:nonzero;fill:url(#linear1);" d="M 31.753906 5.792969 C 45.636719 5.792969 56.890625 17.046875 56.890625 30.929688 C 56.890625 44.8125 45.636719 56.066406 31.753906 56.066406 C 17.871094 56.066406 6.613281 44.8125 6.613281 30.929688 C 6.613281 17.046875 17.871094 5.792969 31.753906 5.792969 Z M 31.753906 5.792969 "/>
<path style=" stroke:none;fill-rule:nonzero;fill:rgb(0%,0%,0%);fill-opacity:0.196078;" d="M 31.753906 56.066406 C 17.828125 56.066406 6.613281 44.855469 6.613281 30.929688 C 6.613281 30.847656 6.617188 30.765625 6.617188 30.683594 C 6.746094 44.496094 17.910156 55.574219 31.753906 55.574219 C 45.597656 55.574219 56.757812 44.496094 56.890625 30.683594 C 56.890625 30.765625 56.890625 30.847656 56.890625 30.929688 C 56.890625 44.855469 45.679688 56.066406 31.753906 56.066406 Z M 31.753906 56.066406 "/>
<path style=" stroke:none;fill-rule:nonzero;fill:rgb(100%,100%,100%);fill-opacity:0.392157;" d="M 31.753906 5.792969 C 17.828125 5.792969 6.613281 17.003906 6.613281 30.929688 C 6.613281 31.011719 6.617188 31.09375 6.617188 31.175781 C 6.746094 17.363281 17.910156 6.285156 31.753906 6.285156 C 45.597656 6.285156 56.757812 17.363281 56.890625 31.175781 C 56.890625 31.09375 56.890625 31.011719 56.890625 30.929688 C 56.890625 17.003906 45.679688 5.792969 31.753906 5.792969 Z M 31.753906 5.792969 "/>
<path style=" stroke:none;fill-rule:nonzero;fill:rgb(12.941177%,12.941177%,12.941177%);fill-opacity:1;" d="M 31.753906 5.605469 C 17.726562 5.605469 6.425781 16.902344 6.425781 30.929688 C 6.425781 44.957031 17.726562 56.253906 31.753906 56.253906 C 45.78125 56.253906 57.078125 44.957031 57.078125 30.929688 C 57.078125 16.902344 45.78125 5.605469 31.753906 5.605469 Z M 31.753906 5.980469 C 45.578125 5.980469 56.703125 17.105469 56.703125 30.929688 C 56.703125 44.753906 45.578125 55.878906 31.753906 55.878906 C 17.925781 55.878906 6.800781 44.753906 6.800781 30.929688 C 6.800781 17.105469 17.925781 5.980469 31.753906 5.980469 Z M 31.753906 5.980469 "/>
<path style=" stroke:none;fill-rule:nonzero;fill:url(#linear2);" d="M 21.003906 28.023438 C 19.734375 28.757812 19.300781 30.371094 20.035156 31.640625 L 22.683594 36.222656 L 16.953125 39.53125 C 16.316406 39.894531 16.101562 40.703125 16.46875 41.335938 C 16.835938 41.972656 17.640625 42.1875 18.277344 41.820312 L 26.296875 37.191406 L 40.046875 29.253906 L 48.066406 24.621094 C 48.699219 24.253906 48.917969 23.449219 48.550781 22.816406 C 48.183594 22.179688 47.378906 21.964844 46.742188 22.332031 L 41.015625 25.636719 L 38.367188 21.054688 C 37.636719 19.785156 36.023438 19.351562 34.753906 20.085938 Z M 21.003906 28.023438 "/>
<path style=" stroke:none;fill-rule:nonzero;fill:rgb(100%,100%,100%);fill-opacity:0.235294;" d="M 36.132812 19.730469 C 35.667969 19.71875 35.191406 19.835938 34.753906 20.085938 L 21.003906 28.023438 C 19.996094 28.605469 19.515625 29.742188 19.730469 30.820312 C 19.871094 30.097656 20.3125 29.441406 21.003906 29.039062 L 34.753906 21.101562 C 36.023438 20.371094 37.636719 20.800781 38.367188 22.070312 L 41.015625 26.652344 L 46.742188 23.347656 C 47.378906 22.980469 48.183594 23.195312 48.550781 23.832031 C 48.578125 23.882812 48.605469 23.933594 48.625 23.984375 C 48.78125 23.617188 48.765625 23.1875 48.550781 22.816406 C 48.183594 22.179688 47.378906 21.964844 46.742188 22.332031 L 41.015625 25.636719 L 38.367188 21.054688 C 37.886719 20.222656 37.027344 19.75 36.132812 19.730469 Z M 22.242188 36.476562 L 16.953125 39.53125 C 16.367188 39.867188 16.140625 40.578125 16.390625 41.183594 C 16.5 40.921875 16.691406 40.695312 16.953125 40.546875 L 22.683594 37.238281 Z M 22.242188 36.476562 "/>
<path style=" stroke:none;fill-rule:nonzero;fill:rgb(0%,0%,0%);fill-opacity:0.235294;" d="M 48.429688 24.316406 C 48.328125 24.433594 48.207031 24.539062 48.066406 24.621094 L 40.046875 29.253906 L 26.296875 37.191406 L 18.277344 41.820312 C 17.703125 42.152344 16.992188 42.007812 16.589844 41.515625 C 16.25 41.925781 16.183594 42.523438 16.46875 43.015625 C 16.835938 43.648438 17.640625 43.867188 18.277344 43.5 L 26.296875 38.867188 L 40.046875 30.929688 L 48.066406 26.300781 C 48.699219 25.933594 48.917969 25.125 48.550781 24.492188 C 48.515625 24.429688 48.472656 24.371094 48.429688 24.316406 Z M 19.816406 31.152344 C 19.585938 31.847656 19.640625 32.632812 20.035156 33.316406 L 21.957031 36.640625 L 22.683594 36.222656 L 20.035156 31.640625 C 19.945312 31.480469 19.871094 31.320312 19.816406 31.152344 Z M 19.816406 31.152344 "/>
<path style="fill:none;stroke-width:3;stroke-linecap:round;stroke-linejoin:round;stroke:rgb(12.941177%,12.941177%,12.941177%);stroke-opacity:1;stroke-miterlimit:4;" d="M 168.015205 9.166093 C 157.859925 15.040532 154.391506 27.94555 160.265945 38.10083 L 181.451422 74.75358 L 135.61205 101.219803 C 130.518786 104.125775 128.8002 110.593907 131.73742 115.655924 C 134.674639 120.749188 141.111525 122.467773 146.204788 119.530554 L 210.354912 82.50284 L 320.344409 19.008903 L 384.494533 -18.050058 C 389.556549 -20.987277 391.306382 -27.424163 388.369163 -32.486179 C 385.431943 -37.579443 378.995058 -39.298029 373.901794 -36.360809 L 328.093669 -9.925834 L 306.908192 -46.578583 C 301.065 -56.733864 288.159982 -60.202282 278.004702 -54.327843 Z M 168.015205 9.166093 " transform="matrix(0.125012,0,0,0.125012,0,26.877566)"/>
</g>
</svg>
